report_00007_2020-12-11T15:55:29.892Z/speed-index/comparison/sorted/6_vs_7.svg

<svg width="640" height="500" xmlns="http://www.w3.org/2000/svg" xmlns:xlink="http://www.w3.org/1999/xlink"><path fill="#fff" d="M0 0h640v500H0z"/><defs><path id="d" stroke-width=".222" stroke="currentColor" d="M-1-1h2v2h-2z"/><path id="b" stroke-width=".222" stroke="currentColor" d="M0-1.33l-1.33 2h2.66z"/><path id="f" stroke-width=".222" stroke="currentColor" d="M0 1.33L1.265.411.782-1.067l-1.564-.009-.483 1.487z"/><use xlink:href="#b" id="c" stroke="currentColor" transform="rotate(180)"/><use xlink:href="#d" id="e" stroke="currentColor" transform="rotate(45)"/><circle id="a" stroke-width=".222" stroke="currentColor" cx="0" cy="0" r="1"/></defs><g fill="none" color="#000" stroke="currentColor"><path stroke="#000" d="M62.2 357.4h9m543.8 0h-9"/><text transform="translate(53.9 361.3)" stroke="none" fill="#000" font-family="Arial" font-size="12" text-anchor="end"><tspan>1600</tspan></text></g><g fill="none" color="#000" stroke="currentColor"><path stroke="#000" d="M62.2 296.2h9m543.8 0h-9"/><text transform="translate(53.9 300.1)" stroke="none" fill="#000" font-family="Arial" font-size="12" text-anchor="end"><tspan>1800</tspan></text></g><g fill="none" color="#000" stroke="currentColor"><path stroke="#000" d="M62.2 235h9m543.8 0h-9"/><text transform="translate(53.9 238.9)" stroke="none" fill="#000" font-family="Arial" font-size="12" text-anchor="end"><tspan>2000</tspan></text></g><g fill="none" color="#000" stroke="currentColor"><path stroke="#000" d="M62.2 173.8h9m543.8 0h-9"/><text transform="translate(53.9 177.7)" stroke="none" fill="#000" font-family="Arial" font-size="12" text-anchor="end"><tspan>2200</tspan></text></g><g fill="none" color="#000" stroke="currentColor"><path stroke="#000" d="M62.2 112.6h9m543.8 0h-9"/><text transform="translate(53.9 116.5)" stroke="none" fill="#000" font-family="Arial" font-size="12" text-anchor="end"><tspan>2400</tspan></text></g><g fill="none" color="#000" stroke="currentColor"><path stroke="#000" d="M62.2 51.4h9m543.8 0h-9"/><text transform="translate(53.9 55.3)" stroke="none" fill="#000" font-family="Arial" font-size="12" text-anchor="end"><tspan>2600</tspan></text></g><g fill="none" color="#000" stroke="currentColor"><path stroke="#000" d="M62.2 392v-9m0-364.9v9"/><text transform="translate(62.2 413.9)" stroke="none" fill="#000" font-family="Arial" font-size="12" text-anchor="middle"><tspan>0</tspan></text></g><g fill="none" color="#000" stroke="currentColor"><path stroke="#000" d="M118 392v-9m0-364.9v9"/><text transform="translate(118 413.9)" stroke="none" fill="#000" font-family="Arial" font-size="12" text-anchor="middle"><tspan>10</tspan></text></g><g fill="none" color="#000" stroke="currentColor"><path stroke="#000" d="M173.9 392v-9m0-364.9v9"/><text transform="translate(173.9 413.9)" stroke="none" fill="#000" font-family="Arial" font-size="12" text-anchor="middle"><tspan>20</tspan></text></g><g fill="none" color="#000" stroke="currentColor"><path stroke="#000" d="M229.7 392v-9m0-364.9v9"/><text transform="translate(229.7 413.9)" stroke="none" fill="#000" font-family="Arial" font-size="12" text-anchor="middle"><tspan>30</tspan></text></g><g fill="none" color="#000" stroke="currentColor"><path stroke="#000" d="M285.6 392v-9m0-364.9v9"/><text transform="translate(285.6 413.9)" stroke="none" fill="#000" font-family="Arial" font-size="12" text-anchor="middle"><tspan>40</tspan></text></g><g fill="none" color="#000" stroke="currentColor"><path stroke="#000" d="M341.4 392v-9m0-364.9v9"/><text transform="translate(341.4 413.9)" stroke="none" fill="#000" font-family="Arial" font-size="12" text-anchor="middle"><tspan>50</tspan></text></g><g fill="none" color="#000" stroke="currentColor"><path stroke="#000" d="M397.2 392v-9m0-364.9v9"/><text transform="translate(397.2 413.9)" stroke="none" fill="#000" font-family="Arial" font-size="12" text-anchor="middle"><tspan>60</tspan></text></g><g fill="none" color="#000" stroke="currentColor"><path stroke="#000" d="M453.1 392v-9m0-364.9v9"/><text transform="translate(453.1 413.9)" stroke="none" fill="#000" font-family="Arial" font-size="12" text-anchor="middle"><tspan>70</tspan></text></g><g fill="none" color="#000" stroke="currentColor"><path stroke="#000" d="M508.9 392v-9m0-364.9v9"/><text transform="translate(508.9 413.9)" stroke="none" fill="#000" font-family="Arial" font-size="12" text-anchor="middle"><tspan>80</tspan></text></g><g fill="none" color="#000" stroke="currentColor"><path stroke="#000" d="M564.7 392v-9m0-364.9v9"/><text transform="translate(564.7 413.9)" stroke="none" fill="#000" font-family="Arial" font-size="12" text-anchor="middle"><tspan>90</tspan></text></g><path stroke="#000" d="M62.2 18.1V392H615V18.1H62.2z" fill="none" color="#000"/><text transform="translate(437.8 431.9)" stroke="none" fill="#000" font-family="Arial" font-size="12" text-anchor="end" color="#000"><tspan>pages+cached+noexternal+nofonts</tspan></text><path stroke="#9400D3" d="M446.1 428h42.2M62.2 384.8h5.6l5.6-.1H79l5.5-.1h22.4l5.6-.1H146l5.5-.1h44.7l5.6-.1h44.7l5.6-.1H307.9l5.6-.1h27.9l5.6-.1h39.1l5.5-.1H408.4l5.6-.1 5.6-.2 5.5-.2 5.6-91.6h5.6l5.6-.1 5.6-.2h5.6l5.6-.1 5.5-.1h11.2l5.6-22.6 5.6-.3 5.6-.3 5.5-1 5.6-.9 5.6-67 5.6-.3 5.6-.2h11.1l5.6-.2 5.6-.3h5.6l5.6-.2h5.6l5.5-.2 5.6-.4h5.6l5.6-.4 5.6-.3 5.6-.1 5.5-.3h5.6l5.6-.3 5.6-.1" fill="none" color="#000"/><text transform="translate(437.8 449.9)" stroke="none" fill="#000" font-family="Arial" font-size="12" text-anchor="end" color="#000"><tspan>pages+cached+noexternal+nosvg</tspan></text><path stroke="#009E73" d="M446.1 446h42.2M62.2 75.7l5.6-1.6 5.6-.4 5.6-.6 5.5-.1 5.6-.5H106.9l5.6-.1 5.5-.1 5.6-.1 5.6-.3 5.6-.3 5.6-.1 5.6-.1 5.5-.1 5.6-.4 5.6-.1h5.6l5.6-.1 5.6-.1h5.5l5.6-.2 5.6-.3 5.6-.2 5.6-.1 5.6-.3 5.5-.2 5.6-.3 5.6-.1 5.6-.1 5.6-.1h5.6l5.6-.2h5.5l5.6-.1h5.6l5.6-.3 5.6-.1 5.6-.1 5.5-.2 5.6-.1 5.6-.1 5.6-.3 5.6-.1 5.6-.1 5.5-.1h5.6l5.6-.5H352.6l5.5-.1 5.6-.3h11.2l5.6-.3 5.6-.1h5.5l5.6-.3 5.6-.1 5.6-.2 5.6-.1h5.6l5.5-.1 5.6-.1 5.6-.1 5.6-.1 5.6-.1h5.6l5.6-.1 5.5-.2 5.6-.1 5.6-.1 5.6-.2 5.6-.7h11.1l5.6-.5 5.6-.9 5.6-.4 5.6-.7 5.6-.1 5.5-.2 5.6-.2 5.6-.3 5.6-.3 5.6-.2 5.6-.2 5.5-1 5.6-.9 5.6-1.7 5.6-8.5 5.6-16.5 5.6-.6 5.5-.7 5.6-.3 5.6-2.9 5.6-.6" fill="none" color="#000"/><text transform="translate(437.8 467.9)" stroke="none" fill="#000" font-family="Arial" font-size="12" text-anchor="end" color="#000"><tspan>score p10=3387</tspan></text><path stroke="#56B4E9" d="M446.1 464h42.2" fill="none" color="#000"/><g><text transform="translate(437.8 485.9)" stroke="none" fill="#000" font-family="Arial" font-size="12" text-anchor="end" color="#000"><tspan>score median=5800</tspan></text><path stroke="#E69F00" d="M446.1 482h42.2" fill="none" color="#000"/></g><g fill="none" color="#000" stroke="currentColor"><path stroke="#000" d="M62.2 18.1V392H615V18.1H62.2z"/></g></svg>

<?xml version="1.0" encoding="utf-8"  standalone="no"?>
<svg 
 width="640" height="500"
 viewBox="0 0 640 500"
 xmlns="http://www.w3.org/2000/svg"
 xmlns:xlink="http://www.w3.org/1999/xlink"
>

<title>Gnuplot</title>
<desc>Produced by GNUPLOT 5.4 patchlevel 0 </desc>

<g id="gnuplot_canvas">

<rect x="0" y="0" width="640" height="500" fill="#ffffff"/>
<defs>

	<circle id='gpDot' r='0.5' stroke-width='0.5' stroke='currentColor'/>
	<path id='gpPt0' stroke-width='0.222' stroke='currentColor' d='M-1,0 h2 M0,-1 v2'/>
	<path id='gpPt1' stroke-width='0.222' stroke='currentColor' d='M-1,-1 L1,1 M1,-1 L-1,1'/>
	<path id='gpPt2' stroke-width='0.222' stroke='currentColor' d='M-1,0 L1,0 M0,-1 L0,1 M-1,-1 L1,1 M-1,1 L1,-1'/>
	<rect id='gpPt3' stroke-width='0.222' stroke='currentColor' x='-1' y='-1' width='2' height='2'/>
	<rect id='gpPt4' stroke-width='0.222' stroke='currentColor' fill='currentColor' x='-1' y='-1' width='2' height='2'/>
	<circle id='gpPt5' stroke-width='0.222' stroke='currentColor' cx='0' cy='0' r='1'/>
	<use xlink:href='#gpPt5' id='gpPt6' fill='currentColor' stroke='none'/>
	<path id='gpPt7' stroke-width='0.222' stroke='currentColor' d='M0,-1.33 L-1.33,0.67 L1.33,0.67 z'/>
	<use xlink:href='#gpPt7' id='gpPt8' fill='currentColor' stroke='none'/>
	<use xlink:href='#gpPt7' id='gpPt9' stroke='currentColor' transform='rotate(180)'/>
	<use xlink:href='#gpPt9' id='gpPt10' fill='currentColor' stroke='none'/>
	<use xlink:href='#gpPt3' id='gpPt11' stroke='currentColor' transform='rotate(45)'/>
	<use xlink:href='#gpPt11' id='gpPt12' fill='currentColor' stroke='none'/>
	<path id='gpPt13' stroke-width='0.222' stroke='currentColor' d='M0,1.330 L1.265,0.411 L0.782,-1.067 L-0.782,-1.076 L-1.265,0.411 z'/>
	<use xlink:href='#gpPt13' id='gpPt14' fill='currentColor' stroke='none'/>
	<filter id='textbox' filterUnits='objectBoundingBox' x='0' y='0' height='1' width='1'>
	  <feFlood flood-color='#FFFFFF' flood-opacity='1' result='bgnd'/>
	  <feComposite in='SourceGraphic' in2='bgnd' operator='atop'/>
	</filter>
	<filter id='greybox' filterUnits='objectBoundingBox' x='0' y='0' height='1' width='1'>
	  <feFlood flood-color='lightgrey' flood-opacity='1' result='grey'/>
	  <feComposite in='SourceGraphic' in2='grey' operator='atop'/>
	</filter>
</defs>
<g fill="none" color="#FFFFFF" stroke="black" stroke-width="1.00" stroke-linecap="butt" stroke-linejoin="miter">
</g>
<g fill="none" color="black" stroke="currentColor" stroke-width="1.00" stroke-linecap="butt" stroke-linejoin="miter">
	<path stroke='black'  d='M62.2,357.4 L71.2,357.4 M615.0,357.4 L606.0,357.4  '/>	<g transform="translate(53.9,361.3)" stroke="none" fill="black" font-family="Arial" font-size="12.00"  text-anchor="end">
		<text><tspan font-family="Arial" > 1600</tspan></text>
	</g>
</g>
<g fill="none" color="black" stroke="currentColor" stroke-width="1.00" stroke-linecap="butt" stroke-linejoin="miter">
	<path stroke='black'  d='M62.2,296.2 L71.2,296.2 M615.0,296.2 L606.0,296.2  '/>	<g transform="translate(53.9,300.1)" stroke="none" fill="black" font-family="Arial" font-size="12.00"  text-anchor="end">
		<text><tspan font-family="Arial" > 1800</tspan></text>
	</g>
</g>
<g fill="none" color="black" stroke="currentColor" stroke-width="1.00" stroke-linecap="butt" stroke-linejoin="miter">
	<path stroke='black'  d='M62.2,235.0 L71.2,235.0 M615.0,235.0 L606.0,235.0  '/>	<g transform="translate(53.9,238.9)" stroke="none" fill="black" font-family="Arial" font-size="12.00"  text-anchor="end">
		<text><tspan font-family="Arial" > 2000</tspan></text>
	</g>
</g>
<g fill="none" color="black" stroke="currentColor" stroke-width="1.00" stroke-linecap="butt" stroke-linejoin="miter">
	<path stroke='black'  d='M62.2,173.8 L71.2,173.8 M615.0,173.8 L606.0,173.8  '/>	<g transform="translate(53.9,177.7)" stroke="none" fill="black" font-family="Arial" font-size="12.00"  text-anchor="end">
		<text><tspan font-family="Arial" > 2200</tspan></text>
	</g>
</g>
<g fill="none" color="black" stroke="currentColor" stroke-width="1.00" stroke-linecap="butt" stroke-linejoin="miter">
	<path stroke='black'  d='M62.2,112.6 L71.2,112.6 M615.0,112.6 L606.0,112.6  '/>	<g transform="translate(53.9,116.5)" stroke="none" fill="black" font-family="Arial" font-size="12.00"  text-anchor="end">
		<text><tspan font-family="Arial" > 2400</tspan></text>
	</g>
</g>
<g fill="none" color="black" stroke="currentColor" stroke-width="1.00" stroke-linecap="butt" stroke-linejoin="miter">
	<path stroke='black'  d='M62.2,51.4 L71.2,51.4 M615.0,51.4 L606.0,51.4  '/>	<g transform="translate(53.9,55.3)" stroke="none" fill="black" font-family="Arial" font-size="12.00"  text-anchor="end">
		<text><tspan font-family="Arial" > 2600</tspan></text>
	</g>
</g>
<g fill="none" color="black" stroke="currentColor" stroke-width="1.00" stroke-linecap="butt" stroke-linejoin="miter">
	<path stroke='black'  d='M62.2,392.0 L62.2,383.0 M62.2,18.1 L62.2,27.1  '/>	<g transform="translate(62.2,413.9)" stroke="none" fill="black" font-family="Arial" font-size="12.00"  text-anchor="middle">
		<text><tspan font-family="Arial" > 0</tspan></text>
	</g>
</g>
<g fill="none" color="black" stroke="currentColor" stroke-width="1.00" stroke-linecap="butt" stroke-linejoin="miter">
	<path stroke='black'  d='M118.0,392.0 L118.0,383.0 M118.0,18.1 L118.0,27.1  '/>	<g transform="translate(118.0,413.9)" stroke="none" fill="black" font-family="Arial" font-size="12.00"  text-anchor="middle">
		<text><tspan font-family="Arial" > 10</tspan></text>
	</g>
</g>
<g fill="none" color="black" stroke="currentColor" stroke-width="1.00" stroke-linecap="butt" stroke-linejoin="miter">
	<path stroke='black'  d='M173.9,392.0 L173.9,383.0 M173.9,18.1 L173.9,27.1  '/>	<g transform="translate(173.9,413.9)" stroke="none" fill="black" font-family="Arial" font-size="12.00"  text-anchor="middle">
		<text><tspan font-family="Arial" > 20</tspan></text>
	</g>
</g>
<g fill="none" color="black" stroke="currentColor" stroke-width="1.00" stroke-linecap="butt" stroke-linejoin="miter">
	<path stroke='black'  d='M229.7,392.0 L229.7,383.0 M229.7,18.1 L229.7,27.1  '/>	<g transform="translate(229.7,413.9)" stroke="none" fill="black" font-family="Arial" font-size="12.00"  text-anchor="middle">
		<text><tspan font-family="Arial" > 30</tspan></text>
	</g>
</g>
<g fill="none" color="black" stroke="currentColor" stroke-width="1.00" stroke-linecap="butt" stroke-linejoin="miter">
	<path stroke='black'  d='M285.6,392.0 L285.6,383.0 M285.6,18.1 L285.6,27.1  '/>	<g transform="translate(285.6,413.9)" stroke="none" fill="black" font-family="Arial" font-size="12.00"  text-anchor="middle">
		<text><tspan font-family="Arial" > 40</tspan></text>
	</g>
</g>
<g fill="none" color="black" stroke="currentColor" stroke-width="1.00" stroke-linecap="butt" stroke-linejoin="miter">
	<path stroke='black'  d='M341.4,392.0 L341.4,383.0 M341.4,18.1 L341.4,27.1  '/>	<g transform="translate(341.4,413.9)" stroke="none" fill="black" font-family="Arial" font-size="12.00"  text-anchor="middle">
		<text><tspan font-family="Arial" > 50</tspan></text>
	</g>
</g>
<g fill="none" color="black" stroke="currentColor" stroke-width="1.00" stroke-linecap="butt" stroke-linejoin="miter">
	<path stroke='black'  d='M397.2,392.0 L397.2,383.0 M397.2,18.1 L397.2,27.1  '/>	<g transform="translate(397.2,413.9)" stroke="none" fill="black" font-family="Arial" font-size="12.00"  text-anchor="middle">
		<text><tspan font-family="Arial" > 60</tspan></text>
	</g>
</g>
<g fill="none" color="black" stroke="currentColor" stroke-width="1.00" stroke-linecap="butt" stroke-linejoin="miter">
	<path stroke='black'  d='M453.1,392.0 L453.1,383.0 M453.1,18.1 L453.1,27.1  '/>	<g transform="translate(453.1,413.9)" stroke="none" fill="black" font-family="Arial" font-size="12.00"  text-anchor="middle">
		<text><tspan font-family="Arial" > 70</tspan></text>
	</g>
</g>
<g fill="none" color="black" stroke="currentColor" stroke-width="1.00" stroke-linecap="butt" stroke-linejoin="miter">
	<path stroke='black'  d='M508.9,392.0 L508.9,383.0 M508.9,18.1 L508.9,27.1  '/>	<g transform="translate(508.9,413.9)" stroke="none" fill="black" font-family="Arial" font-size="12.00"  text-anchor="middle">
		<text><tspan font-family="Arial" > 80</tspan></text>
	</g>
</g>
<g fill="none" color="black" stroke="currentColor" stroke-width="1.00" stroke-linecap="butt" stroke-linejoin="miter">
	<path stroke='black'  d='M564.7,392.0 L564.7,383.0 M564.7,18.1 L564.7,27.1  '/>	<g transform="translate(564.7,413.9)" stroke="none" fill="black" font-family="Arial" font-size="12.00"  text-anchor="middle">
		<text><tspan font-family="Arial" > 90</tspan></text>
	</g>
</g>
<g fill="none" color="black" stroke="currentColor" stroke-width="1.00" stroke-linecap="butt" stroke-linejoin="miter">
</g>
<g fill="none" color="black" stroke="currentColor" stroke-width="1.00" stroke-linecap="butt" stroke-linejoin="miter">
	<path stroke='black'  d='M62.2,18.1 L62.2,392.0 L615.0,392.0 L615.0,18.1 L62.2,18.1 Z  '/></g>
<g fill="none" color="black" stroke="currentColor" stroke-width="1.00" stroke-linecap="butt" stroke-linejoin="miter">
</g>
	<g id="gnuplot_plot_1" ><title>pages+cached+noexternal+nofonts</title>
<g fill="none" color="black" stroke="currentColor" stroke-width="1.00" stroke-linecap="butt" stroke-linejoin="miter">
	<g transform="translate(437.8,431.9)" stroke="none" fill="black" font-family="Arial" font-size="12.00"  text-anchor="end">
		<text><tspan font-family="Arial" >pages+cached+noexternal+nofonts</tspan></text>
	</g>
</g>
<g fill="none" color="black" stroke="currentColor" stroke-width="1.00" stroke-linecap="butt" stroke-linejoin="miter">
	<path stroke='rgb(148,   0, 211)'  d='M446.1,428.0 L488.3,428.0 M62.2,384.8 L67.8,384.8 L73.4,384.7 L79.0,384.7 L84.5,384.6 L90.1,384.6
		L95.7,384.6 L101.3,384.6 L106.9,384.6 L112.5,384.5 L118.0,384.5 L123.6,384.5 L129.2,384.5 L134.8,384.5
		L140.4,384.5 L146.0,384.5 L151.5,384.4 L157.1,384.4 L162.7,384.4 L168.3,384.4 L173.9,384.4 L179.5,384.4
		L185.0,384.4 L190.6,384.4 L196.2,384.4 L201.8,384.3 L207.4,384.3 L213.0,384.3 L218.5,384.3 L224.1,384.3
		L229.7,384.3 L235.3,384.3 L240.9,384.3 L246.5,384.3 L252.1,384.2 L257.6,384.2 L263.2,384.2 L268.8,384.2
		L274.4,384.2 L280.0,384.2 L285.6,384.2 L291.1,384.2 L296.7,384.2 L302.3,384.2 L307.9,384.2 L313.5,384.1
		L319.1,384.1 L324.6,384.1 L330.2,384.1 L335.8,384.1 L341.4,384.1 L347.0,384.0 L352.6,384.0 L358.1,384.0
		L363.7,384.0 L369.3,384.0 L374.9,384.0 L380.5,384.0 L386.1,384.0 L391.6,383.9 L397.2,383.9 L402.8,383.9
		L408.4,383.9 L414.0,383.8 L419.6,383.6 L425.1,383.4 L430.7,291.8 L436.3,291.8 L441.9,291.7 L447.5,291.5
		L453.1,291.5 L458.7,291.4 L464.2,291.3 L469.8,291.3 L475.4,291.3 L481.0,268.7 L486.6,268.4 L492.2,268.1
		L497.7,267.1 L503.3,266.2 L508.9,199.2 L514.5,198.9 L520.1,198.7 L525.7,198.7 L531.2,198.7 L536.8,198.5
		L542.4,198.2 L548.0,198.2 L553.6,198.0 L559.2,198.0 L564.7,197.8 L570.3,197.4 L575.9,197.4 L581.5,197.0
		L587.1,196.7 L592.7,196.6 L598.2,196.3 L603.8,196.3 L609.4,196.0 L615.0,195.9  '/></g>
	</g>
	<g id="gnuplot_plot_2" ><title>pages+cached+noexternal+nosvg</title>
<g fill="none" color="black" stroke="currentColor" stroke-width="1.00" stroke-linecap="butt" stroke-linejoin="miter">
	<g transform="translate(437.8,449.9)" stroke="none" fill="black" font-family="Arial" font-size="12.00"  text-anchor="end">
		<text><tspan font-family="Arial" >pages+cached+noexternal+nosvg</tspan></text>
	</g>
</g>
<g fill="none" color="black" stroke="currentColor" stroke-width="1.00" stroke-linecap="butt" stroke-linejoin="miter">
	<path stroke='rgb(  0, 158, 115)'  d='M446.1,446.0 L488.3,446.0 M62.2,75.7 L67.8,74.1 L73.4,73.7 L79.0,73.1 L84.5,73.0 L90.1,72.5
		L95.7,72.5 L101.3,72.5 L106.9,72.5 L112.5,72.4 L118.0,72.3 L123.6,72.2 L129.2,71.9 L134.8,71.6
		L140.4,71.5 L146.0,71.4 L151.5,71.3 L157.1,70.9 L162.7,70.8 L168.3,70.8 L173.9,70.7 L179.5,70.6
		L185.0,70.6 L190.6,70.4 L196.2,70.1 L201.8,69.9 L207.4,69.8 L213.0,69.5 L218.5,69.3 L224.1,69.0
		L229.7,68.9 L235.3,68.8 L240.9,68.7 L246.5,68.7 L252.1,68.5 L257.6,68.5 L263.2,68.4 L268.8,68.4
		L274.4,68.1 L280.0,68.0 L285.6,67.9 L291.1,67.7 L296.7,67.6 L302.3,67.5 L307.9,67.2 L313.5,67.1
		L319.1,67.0 L324.6,66.9 L330.2,66.9 L335.8,66.4 L341.4,66.4 L347.0,66.4 L352.6,66.4 L358.1,66.3
		L363.7,66.0 L369.3,66.0 L374.9,66.0 L380.5,65.7 L386.1,65.6 L391.6,65.6 L397.2,65.3 L402.8,65.2
		L408.4,65.0 L414.0,64.9 L419.6,64.9 L425.1,64.8 L430.7,64.7 L436.3,64.6 L441.9,64.5 L447.5,64.4
		L453.1,64.4 L458.7,64.3 L464.2,64.1 L469.8,64.0 L475.4,63.9 L481.0,63.7 L486.6,63.0 L492.2,63.0
		L497.7,63.0 L503.3,62.5 L508.9,61.6 L514.5,61.2 L520.1,60.5 L525.7,60.4 L531.2,60.2 L536.8,60.0
		L542.4,59.7 L548.0,59.4 L553.6,59.2 L559.2,59.0 L564.7,58.0 L570.3,57.1 L575.9,55.4 L581.5,46.9
		L587.1,30.4 L592.7,29.8 L598.2,29.1 L603.8,28.8 L609.4,25.9 L615.0,25.3  '/></g>
	</g>
	<g id="gnuplot_plot_3" ><title>score p10=3387</title>
<g fill="none" color="black" stroke="currentColor" stroke-width="1.00" stroke-linecap="butt" stroke-linejoin="miter">
	<g transform="translate(437.8,467.9)" stroke="none" fill="black" font-family="Arial" font-size="12.00"  text-anchor="end">
		<text><tspan font-family="Arial" >score p10=3387</tspan></text>
	</g>
</g>
<g fill="none" color="black" stroke="currentColor" stroke-width="1.00" stroke-linecap="butt" stroke-linejoin="miter">
	<path stroke='rgb( 86, 180, 233)'  d='M446.1,464.0 L488.3,464.0  '/></g>
	</g>
	<g id="gnuplot_plot_4" ><title>score median=5800</title>
<g fill="none" color="black" stroke="currentColor" stroke-width="1.00" stroke-linecap="butt" stroke-linejoin="miter">
	<g transform="translate(437.8,485.9)" stroke="none" fill="black" font-family="Arial" font-size="12.00"  text-anchor="end">
		<text><tspan font-family="Arial" >score median=5800</tspan></text>
	</g>
</g>
<g fill="none" color="black" stroke="currentColor" stroke-width="1.00" stroke-linecap="butt" stroke-linejoin="miter">
	<path stroke='rgb(230, 159,   0)'  d='M446.1,482.0 L488.3,482.0  '/></g>
	</g>
<g fill="none" color="#FFFFFF" stroke="rgb(230, 159,   0)" stroke-width="2.00" stroke-linecap="butt" stroke-linejoin="miter">
</g>
<g fill="none" color="black" stroke="currentColor" stroke-width="2.00" stroke-linecap="butt" stroke-linejoin="miter">
</g>
<g fill="none" color="black" stroke="black" stroke-width="1.00" stroke-linecap="butt" stroke-linejoin="miter">
</g>
<g fill="none" color="black" stroke="currentColor" stroke-width="1.00" stroke-linecap="butt" stroke-linejoin="miter">
	<path stroke='black'  d='M62.2,18.1 L62.2,392.0 L615.0,392.0 L615.0,18.1 L62.2,18.1 Z  '/></g>
<g fill="none" color="black" stroke="currentColor" stroke-width="1.00" stroke-linecap="butt" stroke-linejoin="miter">
</g>
</g>
</svg>
